X:369
T:Miss Bridges Strathspey. RH.369
R:strathspey
S:Rev.R.Harrison’s MS,c1815,Cumbria
O:England
A:Temple Sowerby,Cumbria
Z:vmp.Simon Wilson. Review PJH, 2008.
M:C|
L:1/8
Q:1/2=60
K:D
f|d<FD>F ABAF|d<FD>F E<ee>f|\
d<FD>F A>BA>F|GBAF Ddd:|!
(f/g/)|a<db>d a<df<a|gfed cee f/g/|\
a<db>d a<df>d|(ef/g/) a/g/f/e/ fdd f/g|!
a>db<d a<df<a|g/f/e/d/ cee d/d/|\
d<bc<a b<gA<F|G<BA>G FDD|]

